X:698
T:Haughs of Cromdale, The
B:Kerr's Merry Melodies Book 1
Z:Nigel Gatherer
M:4/4
L:1/8
K:Em
e | B<EE>F B>AF<A | B<EE>F D>EF>A |
    B<EE>F B>AF<A | d>BA>F E2 E  :|
F | D<dd>e d/^c/B/A/ d2 | F<AA>B A>F A2 |
    B<ee>f g>fe>d | B>d B/A/G/F/ E2 E :|
<end>
<start>
